X: 155
T: The Brown Haired Boy
N:"Moderate" "collected by F. O'Neill"
B:O'Neill's 155
Z:Transcribed by henrik.norbeck@mailbox.swipnet.se
M:3/4
L:1/8
K:G
(G>A)|B2 d2 ef|(~g3 a2 b2)|d2 (edcB)|(B2 A2) (G>A)|
B2 d2 ef|(~g3 a b2)|(d>e) (d>B) (A>B)|G4||
(g>a)|b2 (c'ba>g)|(f>g) (af)(ed)|(e>f) (gd)(cB)|(B2 A2) (G>A)|
B2 d2 ef|(~g3 a b2)|(d>e) (d>B) (A>B)|G4||


